X:1
T:Title
%%score { ( 1 5 ) | ( 2 3 4 ) }
L:1/8
M:3/4
K:F
V:1 treble nm="Grand Piano"
V:5 treble 
V:2 bass 
V:3 bass 
V:4 bass 
V:1
 z6 | [CA]3 _A =A2 | F2 [EG]2 [_EA]2 | [DB]6 | [B,D]4 [Bd]2 | [Ac]3 B [FA]2 | [DB]2 [EA]2 [EG]2 | %7
 [A,F]6- |[M:2/4] [A,F]4 |[M:1/4] z2 |[M:3/4] [CA]3 _A =A2 | F2 [EG]2 [_EA]2 | [DB]6 | %13
 [B,D]4 [Bd]2 | [Ac]3 B [FA]2 | [DB]2 [EA]2 [EG]2 | [A,F]6- |[M:2/4] [A,F]4 |[M:1/4] A2 | %19
[M:3/4] [Ec]3 B [FA]2 | [EG]2 [FA]2 [GB]2 | [FA]6 | [Ac]4 [FA]2 | [Ec]3 B [FA]2 | %24
 [EG]2 [FA]2 [GB]2 | [FA]6- |[M:2/4] [FA]4 |[M:1/4] z2 |[M:3/4] [CA]3 _A =A2 | F2 [EG]2 [_EA]2 | %30
 [DB]6 | [B,D]4 [Bd]2 | [Ac]3 B [FA]2 | [DB]4 z2 | F6- |[M:2/4] F4 |[M:1/4] c2 | %37
[M:3/4] [Ec]3 [EB] [EA]2 | [EG]2 [FA]2 [GB]2 | A6 | c4 c2 | [Ec]3 [EB] [EA]2 | [EG]2 [FA]2 [GB]2 | %43
 A6- |[M:2/4] A4 |[M:1/4] C2 |[M:3/4] A3 A A2 | [FA]2 [FG]2 [FA]2 | [FB]6 |[M:4/4] [F=B]6 [FB]2 | %50
[M:7/8] [Fd]2 [Fc]3 [CFA]2 |[M:3/4] [=B,FA]4 [_B,EG]2 | F6- |[M:2/4] F4 |] %54
V:2
 z2 z2 C2 | z2 z =B, [F,C]2 | z2 F,2 F,2 | z2 F,2 B,2 | z2 G,2 G,2 | z2[K:treble] z G C2 | %6
 z2 C2 B,2 | F,2 C,2 A,,2 |[M:2/4] F,,4 |[M:1/4] C2 |[M:3/4] z2 z =B, [F,C]2 | z2 F,2 F,2 | %12
 z2 F,2 B,2 | z2 G,2 G,2 | z2[K:treble] z G C2 | z2 C2 B,2 | F,2 C,2 A,,2 |[M:2/4] F,,4 | %18
[M:1/4] F2 |[M:3/4] z2[K:treble] z G C2 | z2 C2 C2 | z2 C2 C2 | z2 C2 C2 | z2[K:treble] z G C2 | %24
 z2 C2 C2 | z2 C2 C2 |[M:2/4] F,4 |[M:1/4] C2 |[M:3/4] z2 z =B, [F,C]2 | z2 F,2 F,2 | z2 F,2 B,2 | %31
 z2 G,2 G,2 | z2[K:treble] z G C2 | z2 z2 [CE]2 | B,2 z2 z2 |[M:2/4] z4 |[M:1/4] [F,A,F]2 | %37
[M:3/4] [C,G,]3 [C,C] [C,C]2 | [C,C]2 [C,C]2 [C,C]2 | [F,CF]6 | [F,A,F]4 [F,A,F]2 | %41
 [C,G,]3 [C,C] [C,C]2 | [C,C]2 [C,C]2 [C,C]2 | [F,CF]6- |[M:2/4] [F,CF]4 |[M:1/4] [F,A,]2 | %46
[M:3/4] [F,CF]3 [F,CF] [F,CF]2 | [_E,C]2 [E,C]2 [E,C]2 | [D,B,]6 |[M:4/4] [^C,_A,]6 [C,A,]2 | %50
[M:7/8] [C,A,]2 [C,A,]3 C,2 |[M:3/4] G,4 C,2 | z2 B,2 G,2 |[M:2/4] A,4 |] %54
V:3
 x6 | z2 C,2 z2 | F,,6 | B,,6 | G,,6 | z2[K:treble] C2 z2 | C,6 | x6 |[M:2/4] x4 |[M:1/4] x2 | %10
[M:3/4] z2 C,2 z2 | F,,6 | B,,6 | G,,6 | z2[K:treble] C2 z2 | C,6 | x6 |[M:2/4] x4 |[M:1/4] x2 | %19
[M:3/4] z2[K:treble] C2 z2 | C,6 | F,6 | F,6 | z2[K:treble] C2 z2 | C,6 | F,6 |[M:2/4] x4 | %27
[M:1/4] x2 |[M:3/4] z2 C,2 z2 | F,,6 | B,,6 | G,,6 | z2[K:treble] C2 z2 | C,6 | F,6- |[M:2/4] F,4 | %36
[M:1/4] x2 |[M:3/4] x6 | x6 | x6 | x6 | x6 | x6 | x6 |[M:2/4] x4 |[M:1/4] x2 |[M:3/4] x6 | x6 | %48
 x6 |[M:4/4] x8 |[M:7/8] x7 |[M:3/4] x6 | F,6- |[M:2/4] F,4 |] %54
V:4
 x6 | F,,6 | x6 | x6 | x6 | C,6[K:treble] | x6 | x6 |[M:2/4] x4 |[M:1/4] x2 |[M:3/4] F,,6 | x6 | %12
 x6 | x6 | C,6[K:treble] | x6 | x6 |[M:2/4] x4 |[M:1/4] x2 |[M:3/4] C,6[K:treble] | x6 | x6 | x6 | %23
 C,6[K:treble] | x6 | x6 |[M:2/4] x4 |[M:1/4] x2 |[M:3/4] F,,6 | x6 | x6 | x6 | C,6[K:treble] | %33
 x6 | x6 |[M:2/4] x4 |[M:1/4] x2 |[M:3/4] x6 | x6 | x6 | x6 | x6 | x6 | x6 |[M:2/4] x4 | %45
[M:1/4] x2 |[M:3/4] x6 | x6 | x6 |[M:4/4] x8 |[M:7/8] x7 |[M:3/4] x6 | x6 |[M:2/4] x4 |] %54
V:5
 x6 | x6 | x6 | x6 | x6 | x6 | x6 | x6 |[M:2/4] x4 |[M:1/4] x2 |[M:3/4] x6 | x6 | x6 | x6 | x6 | %15
 x6 | x6 |[M:2/4] x4 |[M:1/4] x2 |[M:3/4] x6 | x6 | x6 | x6 | x6 | x6 | x6 |[M:2/4] C4 | %27
[M:1/4] x2 |[M:3/4] x6 | x6 | x6 | x6 | x6 | z2 C2 A2 | z2 A,2 G,2 |[M:2/4] A,4 |[M:1/4] x2 | %37
[M:3/4] x6 | x6 | x6 | x6 | x6 | x6 | x6 |[M:2/4] x4 |[M:1/4] x2 |[M:3/4] x6 | x6 | x6 | %49
[M:4/4] x8 |[M:7/8] x7 |[M:3/4] x6 | A,2 D2 B,2 |[M:2/4] C4 |] %54

